X:560
T: Paddy Fahey's
S: B.Breathnach:"Ceol Rince na hEireann" II/4
Z: B.Black
L: 1/8
M: 6/8
R: jig
K: G
F|DGA B2G|cBc d3|gfd Bcd|cAG FDC|
DGA B2G|cBc d2g|gfd Bcd|cAF G2F|
DGA B2G|cBc d3|gfd Bcd|cAG FDC|
DGA B2G|cBc dfa|gfd Bgd|cAF G2||
B/d/|g2e fga|gfg Bcd|c2A =fef|agf def|
g2a bag|fdg fdc|ABG AGF|1 DGF G2 :|2\ DGF G3||
